shader_type canvas_item;

uniform sampler2D screen_texture : hint_screen_texture;

void fragment() {
	if (COLOR.a == 1.0) {
		vec4 color = textureLod(screen_texture, SCREEN_UV, 0.0);
		COLOR = vec4(1.0 - color.rgb, color.a);
	}
}
